X: 556
T:The steamboat
T:The good natured man
R:Hornpipe
C:James Hill
N:Posted to the woodenflute mailing list, July 2002
Z:Andrew Pickering
M:4/4
L:1/8
Q:140
K:G
d2|g2 bg d2 gd|BcdB G2 AB|cded cBAG|FGEF D2 d2|
g2bg d2 gd|BcdB G2 AB|cedc BAGF|A2 G2 G2:|
Bc|dBdB gdgd|ecec aeae|fdfd gdgd|fgaf defd|
g2bg d2 gd|BcdB G2 AB|cedc BAGF|A2 G2 G2:|
<end>
<start>
